Numix/16/status/indicator-keyboard-Ur-6.svg

<?xml version="1.0" encoding="UTF-8" standalone="no"?>
<svg
   xmlns:dc="http://purl.org/dc/elements/1.1/"
   xmlns:cc="http://creativecommons.org/ns#"
   xmlns:rdf="http://www.w3.org/1999/02/22-rdf-syntax-ns#"
   xmlns:svg="http://www.w3.org/2000/svg"
   xmlns="http://www.w3.org/2000/svg"
   xmlns:sodipodi="http://sodipodi.sourceforge.net/DTD/sodipodi-0.dtd"
   xmlns:inkscape="http://www.inkscape.org/namespaces/inkscape"
   viewBox="0 0 16 16"
   id="svg2"
   version="1.1"
   inkscape:version="0.91 r13725"
   sodipodi:docname="indicator-keyboard-Ur-6.svg">
  <metadata
     id="metadata14">
    <rdf:RDF>
      <cc:Work
         rdf:about="">
        <dc:format>image/svg+xml</dc:format>
        <dc:type
           rdf:resource="http://purl.org/dc/dcmitype/StillImage" />
      </cc:Work>
    </rdf:RDF>
  </metadata>
  <defs
     id="defs12" />
  <sodipodi:namedview
     pagecolor="#ffffff"
     bordercolor="#666666"
     borderopacity="1"
     objecttolerance="10"
     gridtolerance="10"
     guidetolerance="10"
     inkscape:pageopacity="0"
     inkscape:pageshadow="2"
     inkscape:window-width="640"
     inkscape:window-height="480"
     id="namedview10"
     showgrid="false"
     inkscape:zoom="14.75"
     inkscape:cx="8"
     inkscape:cy="8"
     inkscape:window-x="65"
     inkscape:window-y="24"
     inkscape:window-maximized="0"
     inkscape:current-layer="svg2" />
  <path
     style="fill:#ececec;fill-opacity:1"
     d="M 1.5996094 0 C 0.71320937 2.9605947e-16 0 0.71320937 0 1.5996094 L 0 14.400391 C 2.9605947e-16 15.286791 0.71320937 16 1.5996094 16 L 14.400391 16 C 15.286791 16 16 15.286791 16 14.400391 L 16 1.5996094 C 16 0.71320937 15.286791 0 14.400391 0 L 1.5996094 0 z M 2.1796875 4.859375 L 2.7929688 4.859375 L 2.7929688 8.7011719 C 2.7929688 9.0431719 2.8302031 9.34175 2.9082031 9.59375 C 2.9922031 9.83975 3.1079531 10.043078 3.2519531 10.205078 C 3.3959531 10.367078 3.5694375 10.486453 3.7734375 10.564453 C 3.9774375 10.642453 4.2050312 10.681641 4.4570312 10.681641 C 4.7090313 10.681641 4.936625 10.642453 5.140625 10.564453 C 5.344625 10.486453 5.5181094 10.367078 5.6621094 10.205078 C 5.8061094 10.043078 5.9180938 9.83975 5.9960938 9.59375 C 6.0800937 9.34175 6.1210938 9.0431719 6.1210938 8.7011719 L 6.1210938 4.859375 L 6.734375 4.859375 L 6.734375 8.7832031 C 6.734375 9.1252031 6.6914219 9.4460937 6.6074219 9.7460938 C 6.5294219 10.040094 6.4007031 10.297531 6.2207031 10.519531 C 6.0407031 10.741531 5.8037656 10.916969 5.5097656 11.042969 C 5.2217656 11.168969 4.8710312 11.230469 4.4570312 11.230469 C 4.0430313 11.230469 3.6885313 11.168969 3.3945312 11.042969 C 3.1065312 10.916969 2.8733594 10.741531 2.6933594 10.519531 C 2.5133594 10.297531 2.380875 10.040094 2.296875 9.7460938 C 2.218875 9.4460938 2.1796875 9.1252031 2.1796875 8.7832031 L 2.1796875 4.859375 z M 9.8730469 6.3535156 C 10.065047 6.3535156 10.244109 6.3684375 10.412109 6.3984375 C 10.586109 6.4284375 10.705484 6.4582812 10.771484 6.4882812 L 10.654297 6.9921875 C 10.606297 6.9681875 10.507422 6.9439219 10.357422 6.9199219 C 10.213422 6.8899219 10.02125 6.875 9.78125 6.875 C 9.52925 6.875 9.3259219 6.8936875 9.1699219 6.9296875 C 9.0199219 6.9656875 8.9210469 6.9955312 8.8730469 7.0195312 L 8.8730469 11.095703 L 8.2890625 11.095703 L 8.2890625 6.6582031 C 8.4390625 6.5922031 8.6461562 6.5269375 8.9101562 6.4609375 C 9.1741562 6.3889375 9.4950469 6.3535156 9.8730469 6.3535156 z M 13.550781 8.8242188 L 13.574219 9.1464844 C 13.336319 9.1620844 13.116862 9.1993125 12.914062 9.2578125 C 12.715163 9.3124125 12.536859 9.4005844 12.380859 9.5214844 C 12.224859 9.6384843 12.093581 9.7893625 11.988281 9.9765625 C 11.882981 10.163763 11.812437 10.394969 11.773438 10.667969 C 11.878738 10.613369 12.004144 10.566344 12.152344 10.527344 C 12.300544 10.484444 12.459253 10.462891 12.626953 10.462891 C 12.845353 10.462891 13.029541 10.498159 13.181641 10.568359 C 13.333741 10.634659 13.457181 10.722838 13.550781 10.835938 C 13.644381 10.949038 13.712959 11.080316 13.755859 11.228516 C 13.798759 11.376716 13.820312 11.533466 13.820312 11.697266 C 13.820312 11.849366 13.7968 12.000244 13.75 12.152344 C 13.7032 12.304444 13.628744 12.443559 13.527344 12.568359 C 13.429844 12.689259 13.304444 12.789187 13.152344 12.867188 C 13.004144 12.945188 12.827794 12.984375 12.621094 12.984375 C 12.195994 12.984375 11.872691 12.835463 11.650391 12.539062 C 11.431991 12.238762 11.322266 11.821409 11.322266 11.287109 C 11.322266 10.495409 11.510372 9.8958281 11.888672 9.4863281 C 12.270872 9.0768281 12.825381 8.8554188 13.550781 8.8242188 z M 12.591797 10.794922 C 12.412397 10.794922 12.253688 10.816475 12.117188 10.859375 C 11.984587 10.898375 11.861141 10.9454 11.744141 11 C 11.736341 11.0663 11.732422 11.119203 11.732422 11.158203 L 11.732422 11.292969 C 11.732422 11.476269 11.744178 11.650653 11.767578 11.814453 C 11.794878 11.978253 11.83995 12.121294 11.90625 12.246094 C 11.97645 12.370894 12.068541 12.470822 12.181641 12.544922 C 12.294741 12.615122 12.439734 12.650391 12.615234 12.650391 C 12.759534 12.650391 12.882975 12.624919 12.984375 12.574219 C 13.085775 12.519619 13.166116 12.449081 13.228516 12.363281 C 13.290916 12.277481 13.335981 12.177553 13.363281 12.064453 C 13.394481 11.951353 13.410156 11.833784 13.410156 11.708984 C 13.410156 11.396984 13.339619 11.165778 13.199219 11.017578 C 13.062719 10.869378 12.860897 10.794922 12.591797 10.794922 z "
     id="path4" />
</svg>

<svg xmlns="http://www.w3.org/2000/svg" viewBox="0 0 16 16">
 <path d="m 1.6 0 c -0.886 0 -1.6 0.713 -1.6 1.6 l 0 12.801 c 0 0.886 0.713 1.6 1.6 1.6 l 12.801 0 c 0.886 0 1.6 -0.713 1.6 -1.6 l 0 -12.801 c 0 -0.886 -0.713 -1.6 -1.6 -1.6 l -12.801 0 z m 0.58 4.859 l 0.613 0 l 0 3.842 c 0 0.342 0.037 0.641 0.115 0.893 c 0.084 0.246 0.2 0.449 0.344 0.611 c 0.144 0.162 0.317 0.281 0.521 0.359 c 0.204 0.078 0.432 0.117 0.684 0.117 c 0.252 0 0.48 -0.039 0.684 -0.117 c 0.204 -0.078 0.377 -0.197 0.521 -0.359 c 0.144 -0.162 0.256 -0.365 0.334 -0.611 c 0.084 -0.252 0.125 -0.551 0.125 -0.893 l 0 -3.842 l 0.613 0 l 0 3.924 c 0 0.342 -0.043 0.663 -0.127 0.963 c -0.078 0.294 -0.207 0.551 -0.387 0.773 c -0.18 0.222 -0.417 0.397 -0.711 0.523 c -0.288 0.126 -0.639 0.188 -1.053 0.188 c -0.414 0 -0.768 -0.061 -1.063 -0.188 c -0.288 -0.126 -0.521 -0.301 -0.701 -0.523 c -0.18 -0.222 -0.312 -0.479 -0.396 -0.773 c -0.078 -0.3 -0.117 -0.621 -0.117 -0.963 l 0 -3.924 z m 7.693 1.494 c 0.192 0 0.371 0.015 0.539 0.045 c 0.174 0.03 0.293 0.06 0.359 0.09 l -0.117 0.504 c -0.048 -0.024 -0.147 -0.048 -0.297 -0.072 c -0.144 -0.03 -0.336 -0.045 -0.576 -0.045 c -0.252 0 -0.455 0.019 -0.611 0.055 c -0.15 0.036 -0.249 0.066 -0.297 0.09 l 0 4.076 l -0.584 0 l 0 -4.437 c 0.15 -0.066 0.357 -0.131 0.621 -0.197 c 0.264 -0.072 0.585 -0.107 0.963 -0.107 z m 3.678 2.471 l 0.023 0.322 c -0.238 0.016 -0.457 0.053 -0.66 0.111 c -0.199 0.055 -0.377 0.143 -0.533 0.264 c -0.156 0.117 -0.287 0.268 -0.393 0.455 c -0.105 0.187 -0.176 0.418 -0.215 0.691 c 0.105 -0.055 0.231 -0.102 0.379 -0.141 c 0.148 -0.043 0.307 -0.064 0.475 -0.064 c 0.218 0 0.403 0.035 0.555 0.105 c 0.152 0.066 0.276 0.154 0.369 0.268 c 0.094 0.113 0.162 0.244 0.205 0.393 c 0.043 0.148 0.064 0.305 0.064 0.469 c 0 0.152 -0.024 0.303 -0.07 0.455 c -0.047 0.152 -0.121 0.291 -0.223 0.416 c -0.098 0.121 -0.223 0.221 -0.375 0.299 c -0.148 0.078 -0.325 0.117 -0.531 0.117 c -0.425 0 -0.748 -0.149 -0.971 -0.445 c -0.218 -0.3 -0.328 -0.718 -0.328 -1.252 c 0 -0.792 0.188 -1.391 0.566 -1.801 c 0.382 -0.409 0.937 -0.631 1.662 -0.662 z m -0.959 1.971 c -0.179 0 -0.338 0.022 -0.475 0.064 c -0.133 0.039 -0.256 0.086 -0.373 0.141 c -0.008 0.066 -0.012 0.119 -0.012 0.158 l 0 0.135 c 0 0.183 0.012 0.358 0.035 0.521 c 0.027 0.164 0.072 0.307 0.139 0.432 c 0.07 0.125 0.162 0.225 0.275 0.299 c 0.113 0.07 0.258 0.105 0.434 0.105 c 0.144 0 0.268 -0.025 0.369 -0.076 c 0.101 -0.055 0.182 -0.125 0.244 -0.211 c 0.062 -0.086 0.107 -0.186 0.135 -0.299 c 0.031 -0.113 0.047 -0.231 0.047 -0.355 c 0 -0.312 -0.071 -0.543 -0.211 -0.691 c -0.136 -0.148 -0.338 -0.223 -0.607 -0.223 z" style="fill:#ececec;fill-opacity:1"/>
</svg>
